!!!!SEGMENT: pl-kk--kk-i-374--002_anonim--salve-decus.krn
!!!cenid: 17xx:1972
!!!COM: Anonim
!!!COM-rismid: pe30004985
!!!CDT:
!!!CNT:
!!!OTL: Salve decus
!!!PDT:
!!!AGN: Sacred
!!!SMS-siglum: PL-Kk
!!!SMS-shelfmark: Kk.I.374
!!!SMS-shelfwork: 002 W
!!!SMS-variant:
!!!SMS-altvar:
!!!NIFC-rismid: 1001143614
!!!URL-scan: http://repozytorium.nifc.pl/skany/pl-kk-nut--i-374
!!!ONB-nifc: UWAGA: utwory w zbiorze: 1. O Maria virgo pia, 2. Salve decus, 3. O Maria stella maris
!!!key:
**kern	**text
*Ibass	*
*I"Basso	*
*clefF4	*
*k[b-]	*
*g:	*
*M3/2	*
=1	=1
2r	.
2GG/	Sal-
2GG/	-ve
=2	=2
1D\	de-
2D/	-us
=3	=3
2BB-/	hu-
2AA/	-ma-
2FF#X/	-ni
=4	=4
2.GG/	ge-
4GG/	-ne-
2D/	-ris
=5	=5
2r	.
2BB-/	sal-
2BB-/	-ve
=6	=6
1AA/	(vir-
2BB-/	-go)
=7	=7
*2\right	*
2.E-X\	dig-
4E-\	-ni-
!!LO:LB:g=original
2A-X\	-(t)or
=8	=8
2.G\	cae-
4G\	-te-
2G\	-ris
=9	=9
2r	.
1G\	quae
=10	=10
!LO:TX:a:t=P:problem:♮ above	!
2.En\	vir-
4E\	-gi-
2E\	-nes
=11	=11
2F\	om-
2GG/	-nes
2AA-X/	trans-
=12	=12
2.C/	-gre-
4C/	-de-
2FF,</	-ris,
=13	=13
2AA/	et
2.AA/	al-
4AA/	-ti-
=14-	=14
1BB-/	-us
!LO:N:acc=#	!
2BBn/	se-
=15	=15
!LO:TX:a:t=P:problem:custos C	!
1C/	-des
!!LO:LB:g=original
2E-\	in
=16	=16
2BB-/	ſu-
2.D/	-pe-
4D/	.
=17	=17
1.GG/	-ris.
=18||	=18||
2r	.
2GG/	Te
2GG/	cre-
=19-	=19
1D\	-a-
2D,</	-vit,
=20	=20
2BB-/	Pa-
2AA,</	-ter,
2FF#X/	in-
=21	=21
2.GG/	-ge-
4GG/	-ni-
2D/	-tus,
=22	=22
2r	.
2BB-/	fe-
2BB-/	-cun-
=23	=23
1AA/	-da-
!LO:TX:a:t=P:problem:custos E	!
2BB-,</	-vit
!!LO:LB:g=original
=24	=24
2.E-X\	te
4E-\	ſan-
2A-X\	-ctus
=25	=25
2.G\	ſpi-
4G\	-ri-
2G\	-tus
=26	=26
2r	.
1G\	o-
=27	=27
!LO:TX:a:t=P:problem: ♮ above	!
2.En\	-bum-
4E\	-bra-
2E\	-vit
=28-	=28
2F\	te
2GG/	u-
2AA-X/	-ni-
=29-	=29
2.C/	-ge-
4C/	-ni-
2FF,</	-tus
=30	=30
2AA/	tu
2.AA/	es
4AA/	fa-
=31	=31
1BB-/	-cta
!LO:N:acc=#	!
2BBn/	to-
=32	=32
!LO:TX:a:t=P:problem:custos E	!
1C/	-ta
!!LO:LB:g=original
(<2E-X\	Di-
=33-	=33
2BB-/)	.
2.D/	-vi-
4D/	-ni-
=34	=34
1.GG/	-tus
=35||	=35||
!LO:SIC:o:v=wykreslonych kilkanaście taktóœ	!
2r	.
2GG/	No-
2GG/	-men
=36	=36
1D\	tu-
2D/	-(um)
=37	=37
2BB-/	Dae-
2AA/	-mo-
2FF#X/	-nes
=38	=38
2.GG/	cru-
4GG/	-ci-
2D/	-at
=39	=39
2r	.
2BB-/	ſplen-
2BB-/	-dor
=40	=40
1GG/	tu-
!LO:TX:a:t=P:problem:custos E	!
2BB-/	-us
!!LO:LB:g=original
=41	=41
2.E-X\	cae-
4E-\	-cos
2A-X\	ir-
=42	=42
2.G\	-ra-
4G\	-di-
2G\	-at
=43	=43
2r	.
1G\	o-
=44	=44
!LO:TX:a:t=P:problem:♮ above	!
2.En\	-dor
4E\	tu-
2E\	-us
=45	=45
2F\	San-
2GG/	-ctos
2AA-X/	i-
=46	=46
2.C/	-ne-
4C/	-bri-
2FF/	-at
=47	=47
2AA/	fru-
2.AA/	-ctus
4AA/	ve-
=48	=48
1BB-/	-ro
!LO:TX:a:t=P:problem:♮ above	!
!LO:N:acc=#	!
!LO:TX:a:t=P:problem:custos C	!
2BBn/	be-
!!LO:LB:g=original
=49	=49
1C/	-a-
2E-X\	-tos
=50	=50
2BB-/	fa-
2.D/	-ti-
4D/	-a-
=51-	=51
1.GG/	-t.
=52||	=52||
2r	.
2GG/	Te
2GG/	be-
=53	=53
1D\	-a-
2D/	-tam
=54	=54
2BB-/	lau-
2AA/	-da-
2FF#X/	-re
=55	=55
2.GG/	cu-
4GG/	-pi-
2D/	-unt
=56	=56
2r	.
2BB-/	om-
2BB-/	-nes
=57	=57
1AA/	ſan-
!LO:TX:a:t=P:problem:custos E	!
2BB-/	-cti
!!LO:PB:g=original
=58-	=58
2.E-X\	ſed
4E-\	non
2A-X\	ſuf-
=59	=59
2.G\	-fi-
4G\	-ci-
2G\	-unt
=60	=60
2r	.
1G\	nam
=61	=61
2.E\	tot
4E\	lau-
2E\	-des
=62	=62
2F\	ti-
2GG/	-bi
2AA-X/	con-
=63	=63
2.C/	-ve-
4C/	-ni-
2FF/	-unt
=64	=64
2AA/	quod
2.AA/	lau-
4AA/	-dan-
=65	=65
1BB-/	-tes
!LO:TX:a:t=P:problem:custos C	!
!LO:N:acc=#	!
2BBn/	o-
!!LO:LB:g=original
=66	=66
1C/	-mnes
2E-X\	de-
=67	=67
2BB-/	-fi-
2.D/	-ci-
4D/	.
=68-	=68
1.GG/	-unt
=69||	=69||
2r	.
2GG/	Pi-
2GG/	-a
=70-	=70
1D\	ma-
2D/	-ter
=71	=71
2BB-/	per
2AA/	tu-
2FF#X/	-i
=72	=72
2.GG/	gra-
4GG/	-ti-
2D/	-am
=73	=73
2r	.
2BB-/	Re-
2BB-/	-ner-
=74	=74
1AA/	-ba-
!LO:TX:A:t=P:problem:custos E-	!
2BB-/	-tur
!!LO:LB:g=original
=75-	=75
2.E-X\	e-
4E-\	-xul
2A-X\	in
=76	=76
2.G\	Pa-
4G\	-tri-
2G\	-am
=77	=77
2r	.
1G\	Pec-
=78	=78
2.E\	-ca-
4E\	-to-
2E\	-res
=79	=79
2F\	me-
2GG/	-ren-
2AA-X/	-tur
=80	=80
2.C/	ve-
4C/	-ni-
2FF,</	-am
=81	=81
!LO:TX:a:t=P:problem:custos A	!
2AA/	Et
!!LO:LB:g=original
2.AA/	be-
4AA/	-a-
=82	=82
1BB-/	-ti
!LO:N:acc=#	!
2BBn/	poſ-
=83	=83
1C/	-si-
2E-X\	-dent
=84	=84
2BB-/	glo-
2.D/	-ri-
4D/	.
=85-	=85
1.GG/;	-am
==	==
*-	*-
!!!RDF**kern: > = above
!!!RDF**kern: < = below
!!!EED: Leszek Kubiak
!!!EST: 2021-02-25
!!!AIN: 1 bass
!!!ENC: Tomasz Grochalski
!!!END: 2021-02-08
